X: 44
T: the Humours of Tulla
R: reel
Z: 2012 John Chambers <jc@trillian.mit.edu>
B: "100 Essential Irish Session Tunes" 1995 Dave Mallinson, ed.
M: 4/4
L: 1/8
K: D
   fe | "D"d2Ad BdAB | "Bm"d2fd edBc | "Em"d2Ad BdAd | "A7"((3Bcd) ef g2 :|
|: fg | "D"af~f2 df~f2 | af~f2 "A7"geeg | "D"af~f2 "Bm"dfed | "Em"((3Bcd) ef "A7"g2 :|

%%sep 2 1 500
%%sep 1 1 500

